src/22/actions/story-editor.svg

<svg xmlns="http://www.w3.org/2000/svg" viewBox="0 0 22 22">
  <defs id="defs3051">
    <style type="text/css" id="current-color-scheme">
      .ColorScheme-Text {
        color:#5d656b;
      }
      .ColorScheme-Highlight {
        color:#3daee9;
      }
      </style>
  </defs>
 <path 
     style="fill:currentColor;fill-opacity:1;stroke:none" 
     d="M 3 3 L 3 6 L 3 19 L 4 19 L 9 19 L 9 18 L 4 18 L 4 6 L 16 6 L 16 10 L 17 10 L 17 6 L 17 5 L 17 3 L 15 3 L 15 4 L 14 4 L 14 3 L 6 3 L 6 4 L 5 4 L 5 3 L 3 3 z M 5 7 L 5 8 L 15 8 L 15 7 L 5 7 z M 5 10 L 5 11 L 15 11 L 15 10 L 5 10 z M 17 11 L 16.003906 11.994141 L 16 11.990234 L 11 16.988281 L 11.007812 16.996094 L 11.003906 18 L 11 18 L 11 18.990234 L 11 19 L 13 19 L 13.005859 18.994141 L 13.009766 18.990234 C 13.013766 18.990214 13.015531 18.992187 13.019531 18.992188 L 13.013672 18.986328 L 14 18 L 18 14.003906 L 17.294922 13.294922 L 12.304688 18.28125 L 11.710938 17.689453 L 16.703125 12.701172 L 17.294922 13.294922 L 18 13.998047 L 19 12.998047 L 17 11 z M 5 13 L 5 14 L 12 14 L 12 13 L 5 13 z "
     class="ColorScheme-Text"
     />
</svg>

<svg xmlns="http://www.w3.org/2000/svg" viewBox="0 0 22 22"><defs id="defs3051"><style type="text/css" id="current-color-scheme"></style></defs><path d="M3 3v16h6v-1H4V6h12v4h1V3h-2v1h-1V3H6v1H5V3H3zm2 4v1h10V7H5zm0 3v1h10v-1H5zm12 1l-.996.994L16 11.99l-5 4.998.008.008L11.004 18H11v1h2l.006-.006.004-.004.01.002-.006-.006L14 18l4-3.996-.705-.71-4.99 4.987-.594-.592 4.992-4.988.592.594.705.703 1-1L17 11zM5 13v1h7v-1H5z" fill="currentColor" color="#5d656b"/></svg>
